public/extLink.svg

<svg width="208" height="209" viewBox="0 0 208 209" fill="none" xmlns="http://www.w3.org/2000/svg">
<path fill-rule="evenodd" clip-rule="evenodd" d="M91.8049 25.8943H26.7642C12.2611 25.8943 0.504065 37.6514 0.504065 52.1545V182.236C0.504065 196.739 12.2611 208.496 26.7642 208.496H156.846C171.349 208.496 183.106 196.739 183.106 182.236V117.195H163.106V182.236C163.106 185.693 160.303 188.496 156.846 188.496H26.7642C23.3068 188.496 20.5041 185.693 20.5041 182.236V52.1545C20.5041 48.6971 23.3068 45.8943 26.7642 45.8943H91.8049V25.8943Z" fill="#2D3031"/>
<path d="M84.7338 109.916C80.8286 113.821 80.8286 120.153 84.7338 124.058C88.6391 127.963 94.9707 127.963 98.8759 124.058L84.7338 109.916ZM207.871 10.9207C207.871 5.39786 203.394 0.92071 197.871 0.92071H107.871C102.348 0.92071 97.8709 5.39786 97.8709 10.9207C97.8709 16.4436 102.348 20.9207 107.871 20.9207H187.871V100.921C187.871 106.444 192.348 110.921 197.871 110.921C203.394 110.921 207.871 106.444 207.871 100.921V10.9207ZM98.8759 124.058L204.942 17.9918L190.8 3.84964L84.7338 109.916L98.8759 124.058Z" fill="#2D3031"/>
</svg>

<svg xmlns="http://www.w3.org/2000/svg" width="208" height="209" fill="#2d3031" xmlns:v="https://vecta.io/nano"><path fill-rule="evenodd" d="M91.805 25.894H26.764c-14.503 0-26.26 11.757-26.26 26.26v130.082c0 14.503 11.757 26.26 26.26 26.26h130.082c14.503 0 26.26-11.757 26.26-26.26v-65.041h-20v65.041a6.26 6.26 0 0 1-6.26 6.26H26.764a6.26 6.26 0 0 1-6.26-6.26V52.155a6.26 6.26 0 0 1 6.26-6.26h65.041v-20z"/><path d="M84.734 109.916c-3.905 3.905-3.905 10.237 0 14.142s10.237 3.905 14.142 0l-14.142-14.142zm123.137-98.995a10 10 0 0 0-10-10h-90c-5.523 0-10 4.477-10 10s4.477 10 10 10h80v80a10 10 0 1 0 20 0v-90zM98.876 124.058L204.942 17.992 190.8 3.85 84.734 109.916l14.142 14.142z"/></svg>
